public/images/pineapple-logo.svg

<svg width="118" height="41" viewBox="0 0 118 41" fill="none" xmlns="http://www.w3.org/2000/svg">
<path d="M5.23419 14L1.24638 9.21463L5.9178 9.9932L6.59158 10.1055L6.49497 9.42929L5.70711 3.91421L9.64645 7.85355L10.2473 8.45442L10.4808 7.63736L12 2.32003L13.5192 7.63736L13.7527 8.45442L14.3536 7.85355L18.2929 3.91421L17.505 9.42929L17.4084 10.1055L18.0822 9.9932L22.7536 9.21463L18.7658 14H5.23419ZM23.5 35.2929L18.7929 40H5.20711L0.5 35.2929V21.7071L5.20711 17H18.7929L23.5 21.7071V35.2929Z" stroke="#0F8352"/>
<path d="M40 36.5V23.9511H41.3983V25.13C41.728 24.6687 42.1003 24.3242 42.5153 24.0964C42.9303 23.8629 43.4333 23.7461 44.0245 23.7461C44.7976 23.7461 45.4797 23.9455 46.0708 24.3441C46.662 24.7427 47.1082 25.3065 47.4095 26.0355C47.7108 26.7588 47.8614 27.5532 47.8614 28.4188C47.8614 29.3471 47.6937 30.1843 47.3583 30.9303C47.0286 31.6707 46.5455 32.2402 45.9088 32.6388C45.2779 33.0318 44.6128 33.2282 43.9136 33.2282C43.4021 33.2282 42.9416 33.12 42.5324 32.9036C42.1288 32.6872 41.7962 32.4139 41.5348 32.0836V36.5H40ZM41.3898 28.5384C41.3898 29.7059 41.6257 30.5687 42.0975 31.1268C42.5693 31.6849 43.1406 31.964 43.8113 31.964C44.4934 31.964 45.0761 31.6764 45.5592 31.1012C46.0481 30.5203 46.2925 29.6233 46.2925 28.4103C46.2925 27.2542 46.0538 26.3886 45.5763 25.8134C45.1045 25.2382 44.5389 24.9506 43.8795 24.9506C43.2258 24.9506 42.646 25.2581 42.1401 25.8732C41.6399 26.4826 41.3898 27.371 41.3898 28.5384Z" fill="#02170E"/>
<path d="M49.7287 22.2683V20.5H51.2634V22.2683H49.7287ZM49.7287 33.0232V23.9511H51.2634V33.0232H49.7287Z" fill="#02170E"/>
<path d="M53.6082 33.0232V23.9511H54.9895V25.2411C55.6546 24.2444 56.6152 23.7461 57.8714 23.7461C58.4171 23.7461 58.9174 23.8458 59.3721 24.0451C59.8325 24.2387 60.1764 24.495 60.4038 24.8139C60.6312 25.1329 60.7903 25.5116 60.8813 25.9501C60.9381 26.2348 60.9665 26.7331 60.9665 27.445V33.0232H59.4318V27.5048C59.4318 26.8784 59.3721 26.4114 59.2527 26.1038C59.1334 25.7906 58.9202 25.5429 58.6132 25.3607C58.312 25.1727 57.9567 25.0788 57.5474 25.0788C56.8937 25.0788 56.3282 25.2866 55.8507 25.7023C55.3789 26.1181 55.143 26.9068 55.143 28.0686V33.0232H53.6082Z" fill="#02170E"/>
<path d="M69.5271 30.1017L71.113 30.2982C70.8629 31.2265 70.3997 31.9469 69.7232 32.4594C69.0468 32.972 68.1828 33.2282 67.1312 33.2282C65.8067 33.2282 64.7551 32.8211 63.9764 32.0067C63.2033 31.1866 62.8168 30.0391 62.8168 28.5641C62.8168 27.0378 63.209 25.8533 63.9934 25.0104C64.7779 24.1676 65.7954 23.7461 67.0459 23.7461C68.2567 23.7461 69.2457 24.159 70.0131 24.9848C70.7805 25.8106 71.1642 26.9723 71.1642 28.4701C71.1642 28.5612 71.1613 28.6979 71.1557 28.8801H64.4027C64.4596 29.8768 64.7409 30.6399 65.2468 31.1695C65.7527 31.6991 66.3837 31.964 67.1397 31.964C67.7024 31.964 68.1828 31.8159 68.5807 31.5198C68.9786 31.2236 69.2941 30.7509 69.5271 30.1017ZM64.488 27.6159H69.5442C69.476 26.8527 69.2827 26.2804 68.9644 25.8988C68.4755 25.3065 67.8417 25.0104 67.063 25.0104C66.3581 25.0104 65.7641 25.2468 65.2809 25.7194C64.8035 26.1921 64.5391 26.8243 64.488 27.6159Z" fill="#02170E"/>
<path d="M78.9574 31.9042C78.3889 32.3882 77.8404 32.7299 77.3118 32.9293C76.7888 33.1286 76.2261 33.2282 75.6235 33.2282C74.6288 33.2282 73.8642 32.9862 73.3299 32.5021C72.7956 32.0124 72.5284 31.3888 72.5284 30.6313C72.5284 30.1871 72.6279 29.7828 72.8268 29.4183C73.0315 29.0481 73.2958 28.752 73.6198 28.5299C73.9495 28.3078 74.319 28.1398 74.7282 28.0259C75.0295 27.9462 75.4843 27.8693 76.0925 27.7952C77.3317 27.6472 78.244 27.4706 78.8295 27.2656C78.8352 27.0549 78.838 26.9211 78.838 26.8641C78.838 26.2377 78.693 25.7963 78.4031 25.54C78.0109 25.1926 77.4283 25.019 76.6552 25.019C75.9333 25.019 75.399 25.1471 75.0522 25.4034C74.7112 25.6539 74.4582 26.101 74.2934 26.7445L72.7927 26.5395C72.9292 25.896 73.1537 25.3777 73.4663 24.9848C73.779 24.5861 74.2309 24.2815 74.822 24.0707C75.4132 23.8543 76.0982 23.7461 76.8769 23.7461C77.65 23.7461 78.2781 23.8372 78.7613 24.0195C79.2444 24.2017 79.5997 24.4324 79.8271 24.7114C80.0544 24.9848 80.2136 25.3322 80.3045 25.7536C80.3557 26.0156 80.3813 26.4883 80.3813 27.1716V29.2218C80.3813 30.6513 80.4125 31.5568 80.4751 31.9383C80.5433 32.3142 80.674 32.6758 80.8673 33.0232H79.2643C79.1052 32.7043 79.0028 32.3313 78.9574 31.9042ZM78.8295 28.4701C78.2724 28.6979 77.4368 28.8915 76.3227 29.051C75.6917 29.1421 75.2455 29.2446 74.984 29.3585C74.7226 29.4724 74.5208 29.6404 74.3787 29.8625C74.2366 30.0789 74.1655 30.321 74.1655 30.5886C74.1655 30.9987 74.319 31.3404 74.6259 31.6137C74.9386 31.8871 75.3933 32.0238 75.9902 32.0238C76.5813 32.0238 77.1071 31.8956 77.5676 31.6393C78.028 31.3774 78.3662 31.0214 78.5822 30.5715C78.747 30.2242 78.8295 29.7116 78.8295 29.0339V28.4701Z" fill="#02170E"/>
<path d="M82.7687 36.5V23.9511H84.167V25.13C84.4967 24.6687 84.869 24.3242 85.284 24.0964C85.699 23.8629 86.202 23.7461 86.7932 23.7461C87.5662 23.7461 88.2484 23.9455 88.8395 24.3441C89.4307 24.7427 89.8769 25.3065 90.1782 26.0355C90.4795 26.7588 90.6301 27.5532 90.6301 28.4188C90.6301 29.3471 90.4624 30.1843 90.127 30.9303C89.7973 31.6707 89.3142 32.2402 88.6775 32.6388C88.0466 33.0318 87.3815 33.2282 86.6823 33.2282C86.1707 33.2282 85.7103 33.12 85.301 32.9036C84.8975 32.6872 84.5649 32.4139 84.3035 32.0836V36.5H82.7687ZM84.1585 28.5384C84.1585 29.7059 84.3944 30.5687 84.8662 31.1268C85.338 31.6849 85.9093 31.964 86.58 31.964C87.2621 31.964 87.8448 31.6764 88.3279 31.1012C88.8168 30.5203 89.0612 29.6233 89.0612 28.4103C89.0612 27.2542 88.8225 26.3886 88.345 25.8134C87.8732 25.2382 87.3076 24.9506 86.6482 24.9506C85.9945 24.9506 85.4147 25.2581 84.9088 25.8732C84.4086 26.4826 84.1585 27.371 84.1585 28.5384Z" fill="#02170E"/>
<path d="M92.4888 36.5V23.9511H93.8872V25.13C94.2169 24.6687 94.5892 24.3242 95.0042 24.0964C95.4191 23.8629 95.9222 23.7461 96.5133 23.7461C97.2864 23.7461 97.9685 23.9455 98.5597 24.3441C99.1509 24.7427 99.5971 25.3065 99.8983 26.0355C100.2 26.7588 100.35 27.5532 100.35 28.4188C100.35 29.3471 100.183 30.1843 99.8472 30.9303C99.5175 31.6707 99.0343 32.2402 98.3977 32.6388C97.7667 33.0318 97.1017 33.2282 96.4025 33.2282C95.8909 33.2282 95.4305 33.12 95.0212 32.9036C94.6176 32.6872 94.2851 32.4139 94.0236 32.0836V36.5H92.4888ZM93.8787 28.5384C93.8787 29.7059 94.1146 30.5687 94.5864 31.1268C95.0582 31.6849 95.6294 31.964 96.3002 31.964C96.9823 31.964 97.5649 31.6764 98.0481 31.1012C98.5369 30.5203 98.7814 29.6233 98.7814 28.4103C98.7814 27.2542 98.5426 26.3886 98.0652 25.8134C97.5934 25.2382 97.0278 24.9506 96.3684 24.9506C95.7147 24.9506 95.1349 25.2581 94.629 25.8732C94.1288 26.4826 93.8787 27.371 93.8787 28.5384Z" fill="#02170E"/>
<path d="M102.175 33.0232V20.5H103.71V33.0232H102.175Z" fill="#02170E"/>
<path d="M112.296 30.1017L113.882 30.2982C113.632 31.2265 113.168 31.9469 112.492 32.4594C111.815 32.972 110.951 33.2282 109.9 33.2282C108.575 33.2282 107.524 32.8211 106.745 32.0067C105.972 31.1866 105.585 30.0391 105.585 28.5641C105.585 27.0378 105.978 25.8533 106.762 25.0104C107.547 24.1676 108.564 23.7461 109.815 23.7461C111.025 23.7461 112.014 24.159 112.782 24.9848C113.549 25.8106 113.933 26.9723 113.933 28.4701C113.933 28.5612 113.93 28.6979 113.924 28.8801H107.171C107.228 29.8768 107.51 30.6399 108.016 31.1695C108.521 31.6991 109.152 31.964 109.908 31.964C110.471 31.964 110.951 31.8159 111.349 31.5198C111.747 31.2236 112.063 30.7509 112.296 30.1017ZM107.257 27.6159H112.313C112.245 26.8527 112.051 26.2804 111.733 25.8988C111.244 25.3065 110.61 25.0104 109.832 25.0104C109.127 25.0104 108.533 25.2468 108.05 25.7194C107.572 26.1921 107.308 26.8243 107.257 27.6159Z" fill="#02170E"/>
<path d="M116.252 33.0232V31.272H118V33.0232H116.252Z" fill="#02170E"/>
</svg>

<?xml version="1.0" encoding="utf-8"?>
<!-- Generator: Adobe Illustrator 28.1.0, SVG Export Plug-In . SVG Version: 6.00 Build 0)  -->
<svg version="1.1" id="Layer_1" xmlns="http://www.w3.org/2000/svg" xmlns:xlink="http://www.w3.org/1999/xlink" x="0px" y="0px"
	 viewBox="0 0 118 41" style="enable-background:new 0 0 118 41;" xml:space="preserve">
<style type="text/css">
	.st0{fill:none;stroke:#0F8352;}
	.st1{fill:#02170E;}
</style>
<path class="st0" d="M5.2,14l-4-4.8L5.9,10l0.7,0.1L6.5,9.4L5.7,3.9l3.9,3.9l0.6,0.6l0.2-0.8L12,2.3l1.5,5.3l0.2,0.8l0.6-0.6
	l3.9-3.9l-0.8,5.5l-0.1,0.7l0.7-0.1l4.7-0.8l-4,4.8H5.2z M23.5,35.3L18.8,40H5.2l-4.7-4.7V21.7L5.2,17h13.6l4.7,4.7V35.3z"/>
<path class="st1" d="M40,36.5V24h1.4v1.2c0.3-0.5,0.7-0.8,1.1-1c0.4-0.2,0.9-0.4,1.5-0.4c0.8,0,1.5,0.2,2,0.6c0.6,0.4,1,1,1.3,1.7
	c0.3,0.7,0.5,1.5,0.5,2.4c0,0.9-0.2,1.8-0.5,2.5c-0.3,0.7-0.8,1.3-1.4,1.7c-0.6,0.4-1.3,0.6-2,0.6c-0.5,0-1-0.1-1.4-0.3
	c-0.4-0.2-0.7-0.5-1-0.8v4.4H40z M41.4,28.5c0,1.2,0.2,2,0.7,2.6c0.5,0.6,1,0.8,1.7,0.8c0.7,0,1.3-0.3,1.7-0.9
	c0.5-0.6,0.7-1.5,0.7-2.7c0-1.2-0.2-2-0.7-2.6c-0.5-0.6-1-0.9-1.7-0.9c-0.7,0-1.2,0.3-1.7,0.9C41.6,26.5,41.4,27.4,41.4,28.5z"/>
<path class="st1" d="M49.7,22.3v-1.8h1.5v1.8H49.7z M49.7,33V24h1.5V33H49.7z"/>
<path class="st1" d="M53.6,33V24H55v1.3c0.7-1,1.6-1.5,2.9-1.5c0.5,0,1,0.1,1.5,0.3c0.5,0.2,0.8,0.4,1,0.8c0.2,0.3,0.4,0.7,0.5,1.1
	c0.1,0.3,0.1,0.8,0.1,1.5V33h-1.5v-5.5c0-0.6-0.1-1.1-0.2-1.4c-0.1-0.3-0.3-0.6-0.6-0.7c-0.3-0.2-0.7-0.3-1.1-0.3
	c-0.7,0-1.2,0.2-1.7,0.6c-0.5,0.4-0.7,1.2-0.7,2.4v5H53.6z"/>
<path class="st1" d="M69.5,30.1l1.6,0.2c-0.3,0.9-0.7,1.6-1.4,2.2c-0.7,0.5-1.5,0.8-2.6,0.8c-1.3,0-2.4-0.4-3.2-1.2
	c-0.8-0.8-1.2-2-1.2-3.4c0-1.5,0.4-2.7,1.2-3.6c0.8-0.8,1.8-1.3,3.1-1.3c1.2,0,2.2,0.4,3,1.2s1.2,2,1.2,3.5c0,0.1,0,0.2,0,0.4h-6.8
	c0.1,1,0.3,1.8,0.8,2.3c0.5,0.5,1.1,0.8,1.9,0.8c0.6,0,1-0.1,1.4-0.4C69,31.2,69.3,30.8,69.5,30.1z M64.5,27.6h5.1
	c-0.1-0.8-0.3-1.3-0.6-1.7c-0.5-0.6-1.1-0.9-1.9-0.9c-0.7,0-1.3,0.2-1.8,0.7C64.8,26.2,64.5,26.8,64.5,27.6z"/>
<path class="st1" d="M79,31.9c-0.6,0.5-1.1,0.8-1.6,1c-0.5,0.2-1.1,0.3-1.7,0.3c-1,0-1.8-0.2-2.3-0.7c-0.5-0.5-0.8-1.1-0.8-1.9
	c0-0.4,0.1-0.8,0.3-1.2c0.2-0.4,0.5-0.7,0.8-0.9c0.3-0.2,0.7-0.4,1.1-0.5c0.3-0.1,0.8-0.2,1.4-0.2c1.2-0.1,2.2-0.3,2.7-0.5
	c0-0.2,0-0.3,0-0.4c0-0.6-0.1-1.1-0.4-1.3c-0.4-0.3-1-0.5-1.7-0.5c-0.7,0-1.3,0.1-1.6,0.4c-0.3,0.3-0.6,0.7-0.8,1.3l-1.5-0.2
	c0.1-0.6,0.4-1.2,0.7-1.6c0.3-0.4,0.8-0.7,1.4-0.9c0.6-0.2,1.3-0.3,2.1-0.3c0.8,0,1.4,0.1,1.9,0.3c0.5,0.2,0.8,0.4,1.1,0.7
	c0.2,0.3,0.4,0.6,0.5,1c0.1,0.3,0.1,0.7,0.1,1.4v2.1c0,1.4,0,2.3,0.1,2.7c0.1,0.4,0.2,0.7,0.4,1.1h-1.6C79.1,32.7,79,32.3,79,31.9z
	 M78.8,28.5c-0.6,0.2-1.4,0.4-2.5,0.6c-0.6,0.1-1.1,0.2-1.3,0.3c-0.3,0.1-0.5,0.3-0.6,0.5c-0.1,0.2-0.2,0.5-0.2,0.7
	c0,0.4,0.2,0.8,0.5,1c0.3,0.3,0.8,0.4,1.4,0.4c0.6,0,1.1-0.1,1.6-0.4c0.5-0.3,0.8-0.6,1-1.1c0.2-0.3,0.2-0.9,0.2-1.5V28.5z"/>
<path class="st1" d="M82.8,36.5V24h1.4v1.2c0.3-0.5,0.7-0.8,1.1-1c0.4-0.2,0.9-0.4,1.5-0.4c0.8,0,1.5,0.2,2,0.6c0.6,0.4,1,1,1.3,1.7
	c0.3,0.7,0.5,1.5,0.5,2.4c0,0.9-0.2,1.8-0.5,2.5c-0.3,0.7-0.8,1.3-1.4,1.7c-0.6,0.4-1.3,0.6-2,0.6c-0.5,0-1-0.1-1.4-0.3
	c-0.4-0.2-0.7-0.5-1-0.8v4.4H82.8z M84.2,28.5c0,1.2,0.2,2,0.7,2.6c0.5,0.6,1,0.8,1.7,0.8c0.7,0,1.3-0.3,1.7-0.9
	c0.5-0.6,0.7-1.5,0.7-2.7c0-1.2-0.2-2-0.7-2.6c-0.5-0.6-1-0.9-1.7-0.9c-0.7,0-1.2,0.3-1.7,0.9C84.4,26.5,84.2,27.4,84.2,28.5z"/>
<path class="st1" d="M92.5,36.5V24h1.4v1.2c0.3-0.5,0.7-0.8,1.1-1c0.4-0.2,0.9-0.4,1.5-0.4c0.8,0,1.5,0.2,2,0.6c0.6,0.4,1,1,1.3,1.7
	c0.3,0.7,0.5,1.5,0.5,2.4c0,0.9-0.2,1.8-0.5,2.5c-0.3,0.7-0.8,1.3-1.4,1.7c-0.6,0.4-1.3,0.6-2,0.6c-0.5,0-1-0.1-1.4-0.3
	c-0.4-0.2-0.7-0.5-1-0.8v4.4H92.5z M93.9,28.5c0,1.2,0.2,2,0.7,2.6c0.5,0.6,1,0.8,1.7,0.8c0.7,0,1.3-0.3,1.7-0.9
	c0.5-0.6,0.7-1.5,0.7-2.7c0-1.2-0.2-2-0.7-2.6c-0.5-0.6-1-0.9-1.7-0.9c-0.7,0-1.2,0.3-1.7,0.9C94.1,26.5,93.9,27.4,93.9,28.5z"/>
<path class="st1" d="M102.2,33V20.5h1.5V33H102.2z"/>
<path class="st1" d="M112.3,30.1l1.6,0.2c-0.2,0.9-0.7,1.6-1.4,2.2c-0.7,0.5-1.5,0.8-2.6,0.8c-1.3,0-2.4-0.4-3.2-1.2
	c-0.8-0.8-1.2-2-1.2-3.4c0-1.5,0.4-2.7,1.2-3.6c0.8-0.8,1.8-1.3,3.1-1.3c1.2,0,2.2,0.4,3,1.2c0.8,0.8,1.2,2,1.2,3.5
	c0,0.1,0,0.2,0,0.4h-6.8c0.1,1,0.3,1.8,0.8,2.3c0.5,0.5,1.1,0.8,1.9,0.8c0.6,0,1-0.1,1.4-0.4C111.7,31.2,112.1,30.8,112.3,30.1z
	 M107.3,27.6h5.1c-0.1-0.8-0.3-1.3-0.6-1.7c-0.5-0.6-1.1-0.9-1.9-0.9c-0.7,0-1.3,0.2-1.8,0.7C107.6,26.2,107.3,26.8,107.3,27.6z"/>
<path class="st1" d="M116.3,33v-1.8h1.7V33H116.3z"/>
<line class="st0" x1="5.2" y1="17" x2="23.5" y2="35.3"/>
<line class="st0" x1="0.5" y1="21.7" x2="18.8" y2="40"/>
<line class="st0" x1="18.8" y1="17" x2="0.5" y2="35.3"/>
<line class="st0" x1="23.5" y1="21.7" x2="5.2" y2="40"/>
</svg>
